images/for-You/surveys.svg

<svg width="18" height="14" viewBox="0 0 18 14" fill="none" xmlns="http://www.w3.org/2000/svg">
<path d="M9.48214 5.64286L10.6518 6.1875L12.3929 5.66964V4.45536C12.3929 2.39286 10.6518 0.741071 8.57143 0.741071C6.5 0.741071 4.75 2.38393 4.75 4.42857V9.96429C4.75 10.4732 4.33929 10.875 3.83929 10.875C3.33929 10.875 2.92857 10.4732 2.92857 9.96429V7.625H0C0 9.97321 0 10 0 10C0 12.1161 1.71429 13.8304 3.83036 13.8304C5.92857 13.8304 7.66071 12.1429 7.66071 10.0536V4.58928C7.66071 4.08928 8.07143 3.67857 8.57143 3.67857C9.07143 3.67857 9.48214 4.08928 9.48214 4.58928V5.64286ZM14.2143 7.625V10.0804C14.2143 10.5804 13.8036 10.9821 13.3036 10.9821C12.8036 10.9821 12.3929 10.5804 12.3929 10.0804V7.66964L10.6518 8.1875L9.48214 7.64286V10.0357C9.48214 12.1339 11.2054 13.8304 13.3125 13.8304C15.4286 13.8304 17.1429 12.1161 17.1429 10C17.1429 10 17.1429 9.97321 17.1429 7.625H14.2143Z" fill="white"/>
</svg>

<svg width="18" height="14" fill="none" xmlns="http://www.w3.org/2000/svg"><path d="m9.482 5.643 1.17.545 1.74-.518V4.455c0-2.062-1.74-3.714-3.82-3.714C6.5.741 4.75 2.384 4.75 4.43v5.535c0 .51-.41.911-.91.911s-.911-.402-.911-.91v-2.34H0V10a3.83 3.83 0 0 0 3.83 3.83c2.099 0 3.83-1.687 3.83-3.776V4.589c0-.5.411-.91.911-.91s.911.41.911.91v1.054Zm4.732 1.982v2.455c0 .5-.41.902-.91.902s-.911-.402-.911-.902V7.67l-1.741.518-1.17-.545v2.393c0 2.098 1.723 3.794 3.83 3.794a3.83 3.83 0 0 0 3.83-3.83V7.625h-2.928Z" fill="#fff"/></svg>
